packages/ffe-icons/icons/filled/lg/radio_button_checked.svg

<svg xmlns="http://www.w3.org/2000/svg" height="40" viewBox="0 -960 960 960" width="40"><path d="M480-306.771q72.358 0 122.794-50.435Q653.229-407.642 653.229-480t-50.435-122.794Q552.358-653.229 480-653.229t-122.794 50.435Q306.771-552.358 306.771-480t50.435 122.794Q407.642-306.771 480-306.771Zm.067 206.77q-78.426 0-147.666-29.92t-120.887-81.544q-51.647-51.624-81.58-120.833-29.933-69.21-29.933-147.635 0-78.836 29.92-148.204 29.92-69.369 81.544-120.682 51.624-51.314 120.833-81.247 69.21-29.933 147.635-29.933 78.836 0 148.204 29.92 69.369 29.92 120.682 81.21 51.314 51.291 81.247 120.629 29.933 69.337 29.933 148.173 0 78.426-29.92 147.666t-81.21 120.887q-51.291 51.647-120.629 81.58-69.337 29.933-148.173 29.933Z"/></svg>

<svg xmlns="http://www.w3.org/2000/svg" viewBox="0 -960 960 960" width="32" height="32"><path d="M480-306.77q72.36 0 122.79-50.44 50.44-50.43 50.44-122.79 0-72.36-50.44-122.79-50.43-50.44-122.79-50.44-72.36 0-122.79 50.44-50.44 50.43-50.44 122.79 0 72.36 50.44 122.79 50.43 50.44 122.79 50.44Zm.07 206.77q-78.43 0-147.67-29.92-69.24-29.92-120.89-81.54-51.64-51.63-81.58-120.84Q100-401.51 100-479.93q0-78.84 29.92-148.21t81.54-120.68q51.63-51.31 120.84-81.25Q401.51-860 479.93-860q78.84 0 148.21 29.92t120.68 81.21q51.31 51.29 81.25 120.63Q860-558.9 860-480.07q0 78.43-29.92 147.67-29.92 69.24-81.21 120.89-51.29 51.64-120.63 81.58Q558.9-100 480.07-100Z"/></svg>
